Newaita-dark/apps/48/com.github.dcharles525.pho.svg

<svg height="48" viewBox="0 0 48 48" width="48" xmlns="http://www.w3.org/2000/svg" xmlns:xlink="http://www.w3.org/1999/xlink"><linearGradient id="a"><stop offset="0" stop-opacity=".313726"/><stop offset=".222222" stop-opacity=".27451"/><stop offset="1" stop-opacity="0"/></linearGradient><radialGradient id="b" cx="450.908936" cy="189.579361" gradientTransform="matrix(.00000026 -.117199 -.210958 -.00000015 61.823316 95.392994)" gradientUnits="userSpaceOnUse" r="21.166656" xlink:href="#a"/><radialGradient id="c" cx="450.908936" cy="189.579361" gradientTransform="matrix(-.00000026 .117199 .210958 .00000015 -19.155174 -11.291223)" gradientUnits="userSpaceOnUse" r="21.166656" xlink:href="#a"/><radialGradient id="d" cx="450.908936" cy="189.579361" gradientTransform="matrix(-.00000026 -.117199 .210958 -.00000015 -19.155174 95.392994)" gradientUnits="userSpaceOnUse" r="21.166656" xlink:href="#a"/><radialGradient id="e" cx="450.908936" cy="189.579361" gradientTransform="matrix(.00000026 .117199 -.210958 .00000015 61.823313 -11.291224)" gradientUnits="userSpaceOnUse" r="21.166656" xlink:href="#a"/><linearGradient id="f" gradientTransform="matrix(.00572574 0 0 .093759 19.872156 20.158175)" gradientUnits="userSpaceOnUse" x1="255.323059" x2="255.323044" y1="233.5" y2="254.666656"><stop offset="0" stop-opacity=".27451"/><stop offset="1" stop-opacity="0"/></linearGradient><linearGradient id="g" gradientUnits="userSpaceOnUse" x1="23.8149636" x2="23.8149636" y1="42.2180424" y2="4.12545869484"><stop offset="0" stop-color="#66bb6a"/><stop offset="1" stop-color="#81c784"/></linearGradient><path d="m22.328125 42.050781h3.96875v-1.984375h-3.96875zm0 0" fill="url(#b)"/><path d="m20.339844 42.050781h-3.96875v1.984375h3.96875zm0 0" fill="url(#c)"/><path d="m20.339844 42.050781h-3.96875v-1.984375h3.96875zm0 0" fill="url(#d)"/><path d="m22.328125 42.050781h3.96875v1.984375h-3.96875zm0 0" fill="url(#e)"/><path d="m20.339844 41.554688h1.988281v2.480468h-1.988281zm0 0" fill="url(#f)"/><path d="m28.101562 4.84375c-1.894531-1.09375-5.007812-.078125-6.523437 2.546875-1.730469 2.996094 1.625 8.140625 1.675781 13.714844-2.746094-4.851563-2.410156-10.984375-5.410156-12.714844-2.621094-1.515625-5.828125-.839844-6.921875 1.054687-1.515625 2.625-.765625 4.609376-.09375 5.628907.675781 1.019531.675781 1.019531-.546875.945312-1.21875-.070312-3.3125.273438-4.828125 2.894531-1.09375 1.894532-.292969 4.882813 2.550781 6.523438 3.066406 1.769531 8.734375-2.402344 14.300782-2.027344-4.929688 3.132813-11.5 2.640625-13.300782 5.761719-1.515625 2.625-.839844 5.828125 1.054688 6.921875 2.621094 1.515625 4.609375.769531 5.628906.09375 1.019531-.671875 1.019531-.671875.945312.546875-.074218 1.222656.273438 3.3125 2.894532 4.828125 1.894531 1.09375 4.882812.292969 6.523437-2.546875 1.828125-3.167969-2.675781-9.105469-1.976562-14.839844 3.476562 4.613281 2.546875 12.011719 5.710937 13.839844 2.839844 1.640625 5.828125.839844 6.921875-1.054687 1.515625-2.625.765625-4.609376.09375-5.628907-.675781-1.019531-.675781-1.019531.546875-.949219 1.21875.074219 3.3125-.269531 4.828125-2.894531 1.09375-1.894531.074219-5.007812-2.546875-6.519531-3.121094-1.804688-8.570312 1.90625-14.402344 1.660156 4.632813-3.109375 11.628907-2.328125 13.398438-5.394531 1.640625-2.84375.839844-5.832031-1.054688-6.925781-2.621093-1.511719-4.605468-.765625-5.625-.089844-1.023437.671875-1.023437.671875-.949218-.546875.074218-1.222656-.269532-3.316406-2.894532-4.828125zm0 0" fill="url(#g)"/><path d="m26.386719 4.410156c-1.71875-.007812-3.695313 1.054688-4.808594 2.980469-.390625.675781-.519531 1.464844-.488281 2.34375.027344-.683594.171875-1.300781.488281-1.851563 1.515625-2.621093 4.628906-3.640624 6.523437-2.546874 2.269532 1.3125 2.832032 3.054687 2.898438 4.292968.0625-1.226562-.304688-3.289062-2.898438-4.785156-.503906-.292969-1.09375-.433594-1.714843-.433594zm-11.597657 3.148438c-1.675781-.003906-3.183593.703125-3.867187 1.886718-.714844 1.238282-.925781 2.332032-.878906 3.25.042969-.808593.289062-1.734374.878906-2.753906 1.09375-1.894531 4.300781-2.570312 6.921875-1.054687 3 1.730469 2.664062 7.863281 5.410156 12.714843-.003906-.175781-.007812-.347656-.015625-.519531-2.730469-4.847656-2.402343-10.964843-5.394531-12.691406-.984375-.566406-2.046875-.828125-3.054688-.832031zm19.734376 1.867187c-1.125.011719-2.007813.414063-2.578126.792969-.699218.460938-.921874.605469-.964843.257812-.046875.898438.039062.84375.964843.234376 1.019532-.671876 3.003907-1.421876 5.625.09375 1.128907.648437 1.867188 1.96875 1.9375 3.527343.078126-1.773437-.691406-3.304687-1.9375-4.023437-1.144531-.660156-2.171874-.890625-3.046874-.882813zm-24.480469 6.585938c-1.238281-.011719-3.167969.445312-4.589844 2.902343-.347656.609376-.503906 1.328126-.460937 2.082032.035156-.574219.191406-1.113282.460937-1.585938 1.515625-2.625 3.609375-2.96875 4.828125-2.894531.996094.058594 1.179688.070313.847656-.484375-.152344.03125-.429687.015625-.847656-.011719-.074219-.003906-.15625-.007812-.238281-.007812zm27.503906 4.460937c-3.003906-.007812-7.125 2.09375-11.527344 2.167969-.269531.148437-.535156.308594-.792969.484375 5.832032.246094 11.28125-3.464844 14.402344-1.664062 1.828125 1.058593 2.875 2.890624 2.972656 4.546874.109376-1.773437-.960937-3.878906-2.972656-5.039062-.609375-.355469-1.308594-.496094-2.082031-.496094zm-16.023437 3.410156c-.007813 0-.011719 0-.019532 0-4.8125 2.617188-10.792968 2.335938-12.5 5.289063-.617187 1.070313-.871094 2.242187-.828125 3.324219.039063-.9375.300781-1.917969.828125-2.828125 1.800782-3.121094 8.371094-2.632813 13.300782-5.761719-.257813-.019531-.519532-.023438-.78125-.023438zm2.480468 1.804688c-.09375 4.308594 2.347656 8.632812 2.480469 11.71875.136719-2.996094-2.386719-7.339844-2.480469-11.71875zm12.496094 5.179688c-.292969.058593-.144531.285156.300781.957031.355469.539062.730469 1.347656.785157 2.378906.0625-1.269531-.375-2.25-.785157-2.871094-.125-.1875-.226562-.339843-.300781-.464843zm-19.847656 5.554687c-.007813.09375-.011719.195313-.019532.3125-.007812.164063-.011718.34375 0 .535156 0-.011719 0-.027343 0-.039062.023438-.386719.039063-.648438.019532-.808594zm0 0" fill="#fff" fill-opacity=".392157"/><path d="m30.992188 9.019531c-.023438.382813-.035157.636719-.003907.777344.003907-.042969.003907-.082031.007813-.125.011718-.199219.011718-.417969-.003906-.652344zm-9.898438.105469c-.175781 2.878906 1.863281 6.878906 2.132812 11.191406.007813.019532.015626.035156.027344.050782-.039062-4.25-2-8.25-2.160156-11.242188zm-11.042969 2.957031c-.097656 1.324219.355469 2.351563.777344 2.992188.058594.085937.109375.164062.15625.234375.476563-.015625.347656-.210938-.15625-.972656-.339844-.515626-.699219-1.28125-.777344-2.253907zm29.449219 1.636719c-.058594.890625-.335938 1.84375-.875 2.777344-1.769531 3.066406-8.765625 2.289062-13.398438 5.394531.433594.019531.863282.015625 1.289063-.003906 4.550781-2.257813 10.5-1.859375 12.109375-4.652344.691406-1.199219.949219-2.421875.875-3.515625zm-34.5 6.664062c-.15625 1.742188.820312 3.796876 3.003906 5.054688 2.828125 1.632812 7.871094-1.789062 13.007813-2.035156.441406-.21875.871093-.460938 1.292969-.726563-5.566407-.378906-11.234376 3.796875-14.300782 2.023438-1.878906-1.082031-2.867187-2.757813-3.003906-4.316407zm19.074219 3.054688c-.066407.542969-.085938 1.089844-.066407 1.636719.007813-.300781.03125-.601563.066407-.898438 3.476562 4.613281 2.546875 12.011719 5.710937 13.839844 2.839844 1.640625 5.828125.839844 6.921875-1.054687.746094-1.292969.941407-2.429688.871094-3.375-.058594.78125-.308594 1.664062-.871094 2.636718-1.09375 1.894532-4.082031 2.695313-6.921875 1.054688-3.164062-1.828125-2.234375-9.226563-5.710937-13.839844zm18.519531 1.949219c-.046875.492187-.183594.957031-.417969 1.363281-1.515625 2.625-3.609375 2.96875-4.828125 2.898438-1.117187-.070313-1.210937-.070313-.703125.710937.164063-.007813.394531.007813.703125.023437 1.21875.074219 3.3125-.269531 4.828125-2.894531.347657-.605469.484375-1.335937.417969-2.101562zm-34.410156 6.492187c-.113282 1.8125.609375 3.484375 1.875 4.214844 2.621094 1.515625 4.609375.769531 5.628906.09375.65625-.433594.890625-.585938.953125-.316406.066406-1.089844.027344-1.070313-.953125-.421875-1.019531.675781-3.007812 1.421875-5.628906-.089844-1.09375-.632813-1.777344-1.964844-1.875-3.480469zm8.453125 4.769532c0 .027343 0 .054687-.003907.085937-.074218 1.222656.273438 3.3125 2.894532 4.828125 1.894531 1.09375 4.882812.292969 6.523437-2.546875.367188-.640625.480469-1.390625.425781-2.230469-.035156.546875-.167968 1.046875-.425781 1.492188-1.640625 2.839844-4.628906 3.640625-6.523437 2.546875-2.199219-1.269531-2.796875-2.949219-2.890625-4.175781zm0 0" fill-opacity=".235294"/><path d="m299.721378-163.338267c-20.206404-11.665552-53.411566-.833254-69.576689 27.164073-18.456571 31.955282 17.331678 86.825042 17.873293 146.277698-29.28887-51.745059-25.705878-117.155479-57.702823-135.61205-27.955664-16.165123-62.16073-8.957478-73.826283 11.248926-16.165123 27.997326-8.165887 49.161972-.999905 60.035933 7.207645 10.873962 7.207645 10.873962-5.832776 10.082371-12.998759-.749929-35.329959 2.916388-51.495082 30.872052-11.665553 20.206403-3.124702 52.07836 27.205735 69.576689 32.70521 18.873197 93.15777-25.622553 152.527101-21.622935-52.578312 33.413475-122.654954 28.163977-141.861453 61.452465-16.165123 27.997326-8.957478 62.16073 11.248926 73.826283 27.955664 16.165123 49.161972 8.207549 60.035933.999904 10.873962-7.165982 10.873962-7.165982 10.082371 5.832777-.791591 13.040421 2.916388 35.329959 30.872052 51.495082 20.206403 11.665553 52.07836 3.124702 69.576689-27.164072 19.498138-33.788441-28.538942-97.115726-21.08132-158.276552 37.079792 49.203634 27.164072 128.112765 60.91085 147.610903 30.288774 17.498329 62.16073 8.957478 73.826283-11.248925 16.165123-27.997327 8.165887-49.161972.999904-60.035934-7.207645-10.873962-7.207645-10.873962 5.832777-10.124033 12.998758.791591 35.329959-2.874726 51.495082-30.872052 11.665553-20.206404.791591-53.411566-27.164072-69.535026-33.288488-19.248162-91.407938 20.331391-153.610331 17.706642 49.411948-33.1635 124.029822-24.830962 142.90302-57.536172 17.498329-30.330437 8.957478-62.202393-11.248926-73.867946-27.955664-16.12346-49.120309-8.165887-59.994271-.958242-10.915624 7.165982-10.915624 7.165982-10.124033-5.832776.791591-13.040422-2.874726-35.371622-30.872052-51.495083zm0 0" fill="none" stroke="#212121" stroke-linecap="round" stroke-linejoin="round" stroke-width="3" transform="matrix(.093759 0 0 .093759 0 20.158175)"/></svg>

<?xml version="1.0" encoding="UTF-8"?>
<svg xmlns="http://www.w3.org/2000/svg" xmlns:xlink="http://www.w3.org/1999/xlink" width="48px" height="48px" viewBox="0 0 48 48" version="1.1">
<defs>
<radialGradient id="radial0" gradientUnits="userSpaceOnUse" cx="450.908936" cy="189.579361" fx="450.908936" fy="189.579361" r="21.166656" gradientTransform="matrix(0.000000261256,-0.117199,-0.210958,-0.000000152308,61.823316,95.392994)">
<stop offset="0" style="stop-color:rgb(0%,0%,0%);stop-opacity:0.313726;"/>
<stop offset="0.222222" style="stop-color:rgb(0%,0%,0%);stop-opacity:0.27451;"/>
<stop offset="1" style="stop-color:rgb(0%,0%,0%);stop-opacity:0;"/>
</radialGradient>
<radialGradient id="radial1" gradientUnits="userSpaceOnUse" cx="450.908936" cy="189.579361" fx="450.908936" fy="189.579361" r="21.166656" gradientTransform="matrix(-0.000000261256,0.117199,0.210958,0.000000152308,-19.155174,-11.291223)">
<stop offset="0" style="stop-color:rgb(0%,0%,0%);stop-opacity:0.313726;"/>
<stop offset="0.222222" style="stop-color:rgb(0%,0%,0%);stop-opacity:0.27451;"/>
<stop offset="1" style="stop-color:rgb(0%,0%,0%);stop-opacity:0;"/>
</radialGradient>
<radialGradient id="radial2" gradientUnits="userSpaceOnUse" cx="450.908936" cy="189.579361" fx="450.908936" fy="189.579361" r="21.166656" gradientTransform="matrix(-0.000000261256,-0.117199,0.210958,-0.000000152308,-19.155174,95.392994)">
<stop offset="0" style="stop-color:rgb(0%,0%,0%);stop-opacity:0.313726;"/>
<stop offset="0.222222" style="stop-color:rgb(0%,0%,0%);stop-opacity:0.27451;"/>
<stop offset="1" style="stop-color:rgb(0%,0%,0%);stop-opacity:0;"/>
</radialGradient>
<radialGradient id="radial3" gradientUnits="userSpaceOnUse" cx="450.908936" cy="189.579361" fx="450.908936" fy="189.579361" r="21.166656" gradientTransform="matrix(0.000000261256,0.117199,-0.210958,0.000000152308,61.823313,-11.291224)">
<stop offset="0" style="stop-color:rgb(0%,0%,0%);stop-opacity:0.313726;"/>
<stop offset="0.222222" style="stop-color:rgb(0%,0%,0%);stop-opacity:0.27451;"/>
<stop offset="1" style="stop-color:rgb(0%,0%,0%);stop-opacity:0;"/>
</radialGradient>
<linearGradient id="linear0" gradientUnits="userSpaceOnUse" x1="255.323059" y1="233.5" x2="255.323044" y2="254.666656" gradientTransform="matrix(0.00572574,0,0,0.093759,19.872156,20.158175)">
<stop offset="0" style="stop-color:rgb(0%,0%,0%);stop-opacity:0.27451;"/>
<stop offset="1" style="stop-color:rgb(0%,0%,0%);stop-opacity:0;"/>
</linearGradient>
<linearGradient id="linear1" gradientUnits="userSpaceOnUse" x1="254" y1="233.5" x2="254" y2="-168.666672" gradientTransform="matrix(0.0947184,0,0,0.0947184,-0.24351,20.101296)">
<stop offset="0" style="stop-color:rgb(40.000001%,73.333335%,41.568628%);stop-opacity:1;"/>
<stop offset="1" style="stop-color:rgb(50.588238%,78.039217%,51.764709%);stop-opacity:1;"/>
</linearGradient>
</defs>
<g id="surface1">
<path style=" stroke:none;fill-rule:nonzero;fill:url(#radial0);" d="M 22.328125 42.050781 L 26.296875 42.050781 L 26.296875 40.066406 L 22.328125 40.066406 Z M 22.328125 42.050781 "/>
<path style=" stroke:none;fill-rule:nonzero;fill:url(#radial1);" d="M 20.339844 42.050781 L 16.371094 42.050781 L 16.371094 44.035156 L 20.339844 44.035156 Z M 20.339844 42.050781 "/>
<path style=" stroke:none;fill-rule:nonzero;fill:url(#radial2);" d="M 20.339844 42.050781 L 16.371094 42.050781 L 16.371094 40.066406 L 20.339844 40.066406 Z M 20.339844 42.050781 "/>
<path style=" stroke:none;fill-rule:nonzero;fill:url(#radial3);" d="M 22.328125 42.050781 L 26.296875 42.050781 L 26.296875 44.035156 L 22.328125 44.035156 Z M 22.328125 42.050781 "/>
<path style=" stroke:none;fill-rule:nonzero;fill:url(#linear0);" d="M 20.339844 41.554688 L 22.328125 41.554688 L 22.328125 44.035156 L 20.339844 44.035156 Z M 20.339844 41.554688 "/>
<path style=" stroke:none;fill-rule:nonzero;fill:url(#linear1);" d="M 28.101562 4.84375 C 26.207031 3.75 23.09375 4.765625 21.578125 7.390625 C 19.847656 10.386719 23.203125 15.53125 23.253906 21.105469 C 20.507812 16.253906 20.84375 10.121094 17.84375 8.390625 C 15.222656 6.875 12.015625 7.550781 10.921875 9.445312 C 9.40625 12.070312 10.15625 14.054688 10.828125 15.074219 C 11.503906 16.09375 11.503906 16.09375 10.28125 16.019531 C 9.0625 15.949219 6.96875 16.292969 5.453125 18.914062 C 4.359375 20.808594 5.160156 23.796875 8.003906 25.4375 C 11.070312 27.207031 16.738281 23.035156 22.304688 23.410156 C 17.375 26.542969 10.804688 26.050781 9.003906 29.171875 C 7.488281 31.796875 8.164062 35 10.058594 36.09375 C 12.679688 37.609375 14.667969 36.863281 15.6875 36.1875 C 16.707031 35.515625 16.707031 35.515625 16.632812 36.734375 C 16.558594 37.957031 16.90625 40.046875 19.527344 41.5625 C 21.421875 42.65625 24.410156 41.855469 26.050781 39.015625 C 27.878906 35.847656 23.375 29.910156 24.074219 24.175781 C 27.550781 28.789062 26.621094 36.1875 29.785156 38.015625 C 32.625 39.65625 35.613281 38.855469 36.707031 36.960938 C 38.222656 34.335938 37.472656 32.351562 36.800781 31.332031 C 36.125 30.3125 36.125 30.3125 37.347656 30.382812 C 38.566406 30.457031 40.660156 30.113281 42.175781 27.488281 C 43.269531 25.59375 42.25 22.480469 39.628906 20.96875 C 36.507812 19.164062 31.058594 22.875 25.226562 22.628906 C 29.859375 19.519531 36.855469 20.300781 38.625 17.234375 C 40.265625 14.390625 39.464844 11.402344 37.570312 10.308594 C 34.949219 8.796875 32.964844 9.542969 31.945312 10.21875 C 30.921875 10.890625 30.921875 10.890625 30.996094 9.671875 C 31.070312 8.449219 30.726562 6.355469 28.101562 4.84375 Z M 28.101562 4.84375 "/>
<path style=" stroke:none;fill-rule:nonzero;fill:rgb(100%,100%,100%);fill-opacity:0.392157;" d="M 26.386719 4.410156 C 24.667969 4.402344 22.691406 5.464844 21.578125 7.390625 C 21.1875 8.066406 21.058594 8.855469 21.089844 9.734375 C 21.117188 9.050781 21.261719 8.433594 21.578125 7.882812 C 23.09375 5.261719 26.207031 4.242188 28.101562 5.335938 C 30.371094 6.648438 30.933594 8.390625 31 9.628906 C 31.0625 8.402344 30.695312 6.339844 28.101562 4.84375 C 27.597656 4.550781 27.007812 4.410156 26.386719 4.410156 Z M 14.789062 7.558594 C 13.113281 7.554688 11.605469 8.261719 10.921875 9.445312 C 10.207031 10.683594 9.996094 11.777344 10.042969 12.695312 C 10.085938 11.886719 10.332031 10.960938 10.921875 9.941406 C 12.015625 8.046875 15.222656 7.371094 17.84375 8.886719 C 20.84375 10.617188 20.507812 16.75 23.253906 21.601562 C 23.25 21.425781 23.246094 21.253906 23.238281 21.082031 C 20.507812 16.234375 20.835938 10.117188 17.84375 8.390625 C 16.859375 7.824219 15.796875 7.5625 14.789062 7.558594 Z M 34.523438 9.425781 C 33.398438 9.4375 32.515625 9.839844 31.945312 10.21875 C 31.246094 10.679688 31.023438 10.824219 30.980469 10.476562 C 30.933594 11.375 31.019531 11.320312 31.945312 10.710938 C 32.964844 10.039062 34.949219 9.289062 37.570312 10.804688 C 38.699219 11.453125 39.4375 12.773438 39.507812 14.332031 C 39.585938 12.558594 38.816406 11.027344 37.570312 10.308594 C 36.425781 9.648438 35.398438 9.417969 34.523438 9.425781 Z M 10.042969 16.011719 C 8.804688 16 6.875 16.457031 5.453125 18.914062 C 5.105469 19.523438 4.949219 20.242188 4.992188 20.996094 C 5.027344 20.421875 5.183594 19.882812 5.453125 19.410156 C 6.96875 16.785156 9.0625 16.441406 10.28125 16.515625 C 11.277344 16.574219 11.460938 16.585938 11.128906 16.03125 C 10.976562 16.0625 10.699219 16.046875 10.28125 16.019531 C 10.207031 16.015625 10.125 16.011719 10.042969 16.011719 Z M 37.546875 20.472656 C 34.542969 20.464844 30.421875 22.566406 26.019531 22.640625 C 25.75 22.789062 25.484375 22.949219 25.226562 23.125 C 31.058594 23.371094 36.507812 19.660156 39.628906 21.460938 C 41.457031 22.519531 42.503906 24.351562 42.601562 26.007812 C 42.710938 24.234375 41.640625 22.128906 39.628906 20.96875 C 39.019531 20.613281 38.320312 20.472656 37.546875 20.472656 Z M 21.523438 23.882812 C 21.515625 23.882812 21.511719 23.882812 21.503906 23.882812 C 16.691406 26.5 10.710938 26.21875 9.003906 29.171875 C 8.386719 30.242188 8.132812 31.414062 8.175781 32.496094 C 8.214844 31.558594 8.476562 30.578125 9.003906 29.667969 C 10.804688 26.546875 17.375 27.035156 22.304688 23.90625 C 22.046875 23.886719 21.785156 23.882812 21.523438 23.882812 Z M 24.003906 25.6875 C 23.910156 29.996094 26.351562 34.320312 26.484375 37.40625 C 26.621094 34.410156 24.097656 30.066406 24.003906 25.6875 Z M 36.5 30.867188 C 36.207031 30.925781 36.355469 31.152344 36.800781 31.824219 C 37.15625 32.363281 37.53125 33.171875 37.585938 34.203125 C 37.648438 32.933594 37.210938 31.953125 36.800781 31.332031 C 36.675781 31.144531 36.574219 30.992188 36.5 30.867188 Z M 16.652344 36.421875 C 16.644531 36.515625 16.640625 36.617188 16.632812 36.734375 C 16.625 36.898438 16.621094 37.078125 16.632812 37.269531 C 16.632812 37.257812 16.632812 37.242188 16.632812 37.230469 C 16.65625 36.84375 16.671875 36.582031 16.652344 36.421875 Z M 16.652344 36.421875 "/>
<path style=" stroke:none;fill-rule:nonzero;fill:rgb(0%,0%,0%);fill-opacity:0.235294;" d="M 30.992188 9.019531 C 30.96875 9.402344 30.957031 9.65625 30.988281 9.796875 C 30.992188 9.753906 30.992188 9.714844 30.996094 9.671875 C 31.007812 9.472656 31.007812 9.253906 30.992188 9.019531 Z M 21.09375 9.125 C 20.917969 12.003906 22.957031 16.003906 23.226562 20.316406 C 23.234375 20.335938 23.242188 20.351562 23.253906 20.367188 C 23.214844 16.117188 21.253906 12.117188 21.09375 9.125 Z M 10.050781 12.082031 C 9.953125 13.40625 10.40625 14.433594 10.828125 15.074219 C 10.886719 15.160156 10.9375 15.238281 10.984375 15.308594 C 11.460938 15.292969 11.332031 15.097656 10.828125 14.335938 C 10.488281 13.820312 10.128906 13.054688 10.050781 12.082031 Z M 39.5 13.71875 C 39.441406 14.609375 39.164062 15.5625 38.625 16.496094 C 36.855469 19.5625 29.859375 18.785156 25.226562 21.890625 C 25.660156 21.910156 26.089844 21.90625 26.515625 21.886719 C 31.066406 19.628906 37.015625 20.027344 38.625 17.234375 C 39.316406 16.035156 39.574219 14.8125 39.5 13.71875 Z M 5 20.382812 C 4.84375 22.125 5.820312 24.179688 8.003906 25.4375 C 10.832031 27.070312 15.875 23.648438 21.011719 23.402344 C 21.453125 23.183594 21.882812 22.941406 22.304688 22.675781 C 16.738281 22.296875 11.070312 26.472656 8.003906 24.699219 C 6.125 23.617188 5.136719 21.941406 5 20.382812 Z M 24.074219 23.4375 C 24.007812 23.980469 23.988281 24.527344 24.007812 25.074219 C 24.015625 24.773438 24.039062 24.472656 24.074219 24.175781 C 27.550781 28.789062 26.621094 36.1875 29.785156 38.015625 C 32.625 39.65625 35.613281 38.855469 36.707031 36.960938 C 37.453125 35.667969 37.648438 34.53125 37.578125 33.585938 C 37.519531 34.367188 37.269531 35.25 36.707031 36.222656 C 35.613281 38.117188 32.625 38.917969 29.785156 37.277344 C 26.621094 35.449219 27.550781 28.050781 24.074219 23.4375 Z M 42.59375 25.386719 C 42.546875 25.878906 42.410156 26.34375 42.175781 26.75 C 40.660156 29.375 38.566406 29.71875 37.347656 29.648438 C 36.230469 29.578125 36.136719 29.578125 36.644531 30.359375 C 36.808594 30.351562 37.039062 30.367188 37.347656 30.382812 C 38.566406 30.457031 40.660156 30.113281 42.175781 27.488281 C 42.523438 26.882812 42.660156 26.152344 42.59375 25.386719 Z M 8.183594 31.878906 C 8.070312 33.691406 8.792969 35.363281 10.058594 36.09375 C 12.679688 37.609375 14.667969 36.863281 15.6875 36.1875 C 16.34375 35.753906 16.578125 35.601562 16.640625 35.871094 C 16.707031 34.78125 16.667969 34.800781 15.6875 35.449219 C 14.667969 36.125 12.679688 36.871094 10.058594 35.359375 C 8.964844 34.726562 8.28125 33.394531 8.183594 31.878906 Z M 16.636719 36.648438 C 16.636719 36.675781 16.636719 36.703125 16.632812 36.734375 C 16.558594 37.957031 16.90625 40.046875 19.527344 41.5625 C 21.421875 42.65625 24.410156 41.855469 26.050781 39.015625 C 26.417969 38.375 26.53125 37.625 26.476562 36.785156 C 26.441406 37.332031 26.308594 37.832031 26.050781 38.277344 C 24.410156 41.117188 21.421875 41.917969 19.527344 40.824219 C 17.328125 39.554688 16.730469 37.875 16.636719 36.648438 Z M 16.636719 36.648438 "/>
<path style="fill:none;stroke-width:3;stroke-linecap:round;stroke-linejoin:round;stroke:rgb(12.941177%,12.941177%,12.941177%);stroke-opacity:1;stroke-miterlimit:4;" d="M 299.721378 -163.338267 C 279.514974 -175.003819 246.309812 -164.171521 230.144689 -136.174194 C 211.688118 -104.218912 247.476367 -49.349152 248.017982 10.103504 C 218.729112 -41.641555 222.312104 -107.051975 190.315159 -125.508546 C 162.359495 -141.673669 128.154429 -134.466024 116.488876 -114.25962 C 100.323753 -86.262294 108.322989 -65.097648 115.488971 -54.223687 C 122.696616 -43.349725 122.696616 -43.349725 109.656195 -44.141316 C 96.657436 -44.891245 74.326236 -41.224928 58.161113 -13.269264 C 46.49556 6.937139 55.036411 38.809096 85.366848 56.307425 C 118.072058 75.180622 178.524618 30.684872 237.893949 34.68449 C 185.315637 68.097965 115.238995 62.848467 96.032496 96.136955 C 79.867373 124.134281 87.075018 158.297685 107.281422 169.963238 C 135.237086 186.128361 156.443394 178.170787 167.317355 170.963142 C 178.191317 163.79716 178.191317 163.79716 177.399726 176.795919 C 176.608135 189.83634 180.316114 212.125878 208.271778 228.291001 C 228.478181 239.956554 260.350138 231.415703 277.848467 201.126929 C 297.346605 167.338488 249.309525 104.011203 256.767147 42.850377 C 293.846939 92.054011 283.931219 170.963142 317.677997 190.46128 C 347.966771 207.959609 379.838727 199.418758 391.50428 179.212355 C 407.669403 151.215028 399.670167 130.050383 392.504184 119.176421 C 385.296539 108.302459 385.296539 108.302459 398.336961 109.052388 C 411.335719 109.843979 433.66692 106.177662 449.832043 78.180336 C 461.497596 57.973932 450.623634 24.76877 422.667971 8.64531 C 389.379483 -10.602852 331.260033 28.976701 269.05764 26.351952 C 318.469588 -6.811548 393.087462 1.52099 411.96066 -31.18422 C 429.458989 -61.514657 420.918138 -93.386613 400.711734 -105.052166 C 372.75607 -121.175626 351.591425 -113.218053 340.717463 -106.010408 C 329.801839 -98.844426 329.801839 -98.844426 330.59343 -111.843184 C 331.385021 -124.883606 327.718704 -147.214806 299.721378 -163.338267 Z M 299.721378 -163.338267 " transform="matrix(0.093759,0,0,0.093759,0,20.158175)"/>
</g>
</svg>
